src/assets/images/guideNormal.svg

<svg fill="none" height="23" viewBox="0 0 20 23" width="20" xmlns="http://www.w3.org/2000/svg"><path d="m1 1h18v21h-18z" fill="#eee" stroke="#000" stroke-width="2"/><path d="m9 2c0-.55228.44772-1 1-1h4c.5523 0 1 .44772 1 1v7.38197c0 .74333-.7823 1.22683-1.4472.89443l-1.1056-.55279c-.2815-.14077-.6129-.14077-.8944 0l-1.1056.55279c-.66489.3324-1.4472-.1511-1.4472-.89443z" fill="#000"/></svg>

<svg width="20" height="23" viewBox="0 0 20 23" fill="none" xmlns="http://www.w3.org/2000/svg">
<path d="M1 1H19V22H1V1Z" fill="#EEEEEE" stroke="black" stroke-width="2"/>
<path d="M9 2C9 1.44772 9.44772 1 10 1H14C14.5523 1 15 1.44772 15 2V9.38197C15 10.1253 14.2177 10.6088 13.5528 10.2764L12.4472 9.72361C12.1657 9.58284 11.8343 9.58284 11.5528 9.72361L10.4472 10.2764C9.78231 10.6088 9 10.1253 9 9.38197V2Z" fill="black"/>
</svg>
